X: 21142
U: Q=!diminuendo(!
U: q=!diminuendo)!
M: 2/4
L: 1/16
K: G
V: 1 name="2"
[|\
d4 a3f | d2d2 z2(ed) | (dc)(cB) (BA).G.F | G2G2 z4 H|]
|:\
d4 defg | g3d B2z2 | B4 (cB)(ed) | d3B G2z2 |\


